kora-light/actions/scalable/distribute-randomize.svg

<svg xmlns="http://www.w3.org/2000/svg" style="fill-rule:evenodd;clip-rule:evenodd;stroke-linejoin:round;stroke-miterlimit:2" width="100%" height="100%" version="1.1" viewBox="0 0 16 16" xml:space="preserve">
 <defs>
  <style id="current-color-scheme" type="text/css">
   .ColorScheme-Text { color:#444444; } .ColorScheme-Highlight { color:#4285f4; } .ColorScheme-NeutralText { color:#ff9800; } .ColorScheme-PositiveText { color:#4caf50; } .ColorScheme-NegativeText { color:#f44336; }
  </style>
 </defs>
 <path style="fill:currentColor;" class="ColorScheme-Text" d="M0,12l0,4l5,0l0,-4l-5,0Zm5,-5l0,4l5,0l0,-4l-5,0Zm6,-1l0,4l5,0l0,-4l-5,0Zm-1,-5l0,4l5,0l0,-4l-5,0Z"/>
 <path style="fill:currentColor;fill-opacity:0.3" class="ColorScheme-Text" d="M6,12l0,4l5,0l0,-4l-5,0Zm-6,-10l0,4l5,0l0,-4l-5,0Z"/>
</svg>

<svg xmlns="http://www.w3.org/2000/svg" width="16" height="16" version="1.1">
 <defs>
  <style id="current-color-scheme" type="text/css">
   .ColorScheme-Text { color:#444444; } .ColorScheme-Highlight { color:#4285f4; }
  </style>
 </defs>
 <path style="fill:currentColor" class="ColorScheme-Text" d="M 10,1 V 5 H 15 V 1 Z M 0,2 V 6 H 5 V 2 Z M 11,6 V 10 H 16 V 6 Z M 5,7 V 11 H 10 V 7 Z M 0,12 V 16 H 5 V 12 Z M 6,12 V 16 H 11 V 12 Z"/>
</svg>
